X:1
T:Title
%%score 1 ( 2 3 )
L:1/8
Q:1/4=60
M:4/4
K:C
V:1 treble nm="Piano, upper" snm="Pno."
V:2 treble nm="Piano, lower" snm="Pno."
V:3 treble 
V:1
 z"^G" G/"^C"c/"^E" e/"^G"G/"^C"c/"^E"e/ z"^G" G/"^C"c/"^E" e/"^G"G/"^C"c/"^E"e/ | %1
 z"^A" A/"^D"d/"^F" f/"^A"A/"^D"d/"^F"f/ z"^A" A/"^D"d/"^F" f/"^A"A/"^D"d/"^F"f/ | %2
 z"^G" G/"^D"d/"^F" f/"^G"G/"^D"d/"^F"f/ z"^G" G/"^D"d/"^F" f/"^G"G/"^D"d/"^F"f/ | %3
 z"^G" G/"^C"c/"^E" e/"^G"G/"^C"c/"^E"e/ z"^G" G/"^C"c/"^E" e/"^G"G/"^C"c/"^E"e/ | %4
 z"^A" A/"^E"e/"^A" a/"^A"A/"^E"e/"^A"a/ z"^A" A/"^E"e/"^A" a/"^A"A/"^E"e/"^A"a/ | %5
 z"^F♯" ^F/"^A"A/"^D" d/"^F♯"F/"^A"A/"^D"d/ z"^F♯" F/"^A"A/"^D" d/"^F♯"F/"^A"A/"^D"d/ | %6
 z"^G" G/"^D"d/"^G" g/"^G"G/"^D"d/"^G"g/ z"^G" G/"^D"d/"^G" g/"^G"G/"^D"d/"^G"g/ | %7
 z"^E" E/"^G"G/"^C" c/"^E"E/"^G"G/"^C"c/ z"^E" E/"^G"G/"^C" c/"^E"E/"^G"G/"^C"c/ | %8
 z"^E" E/"^G"G/"^C" c/"^E"E/"^G"G/"^C"c/ z"^E" E/"^G"G/"^C" c/"^E"E/"^G"G/"^C"c/ | %9
 z"^D" D/"^F♯"^F/"^C" c/"^D"D/"^F♯"F/"^C"c/ z"^D" D/"^F♯"F/"^C" c/"^D"D/"^F♯"F/"^C"c/ | %10
 z"^D" D/"^G"G/"^B" B/"^D"D/"^G"G/"^B"B/ z"^D" D/"^G"G/"^B" B/"^D"D/"^G"G/"^B"B/ | %11
 z"^E" E/"^G"G/"^C♯" ^c/"^E"E/"^G"G/"^C♯"c/ z"^E" E/"^G"G/"^C♯" c/"^E"E/"^G"G/"^C♯"c/ | %12
 z"^D" D/"^A"A/"^D" d/"^D"D/"^A"A/"^D"d/ z"^D" D/"^A"A/"^D" d/"^D"D/"^A"A/"^D"d/ | %13
 z"^D" D/"^F"F/"^B" B/"^D"D/"^F"F/"^B"B/ z"^D" D/"^F"F/"^B" B/"^D"D/"^F"F/"^B"B/ | %14
 z"^C" C/"^G"G/"^C" c/"^C"C/"^G"G/"^C"c/ z"^C" C/"^G"G/"^C" c/"^C"C/"^G"G/"^C"c/ | %15
 z"^A" A,/"^C"C/"^F" F/"^A"A,/"^C"C/"^F"F/ z"^A" A,/"^C"C/"^F" F/"^A"A,/"^C"C/"^F"F/ | %16
 z"^A" A,/"^C"C/"^F" F/"^A"A,/"^C"C/"^F"F/ z"^A" A,/"^C"C/"^F" F/"^A"A,/"^C"C/"^F"F/ | %17
 z"^G" G,/"^B"B,/"^F" F/"^G"G,/"^B"B,/"^F"F/ z"^G" G,/"^B"B,/"^F" F/"^G"G,/"^B"B,/"^F"F/ | %18
 z"^G" G,/"^C"C/"^E" E/"^G"G,/"^C"C/"^E"E/ z"^G" G,/"^C"C/"^E" E/"^G"G,/"^C"C/"^E"E/ | %19
 z"^B♭" _B,/"^C"C/"^E" E/"^B♭"B,/"^C"C/"^E"E/ z"^B♭" B,/"^C"C/"^E" E/"^B♭"B,/"^C"C/"^E"E/ | %20
 z"^A" A,/"^C"C/"^E" E/"^A"A,/"^C"C/"^E"E/ z"^A" A,/"^C"C/"^E" E/"^A"A,/"^C"C/"^E"E/ | %21
 z"^A" A,/"^C"C/"^E♭" _E/"^A"A,/"^C"C/"^E♭"E/ z"^A" A,/"^C"C/"^E♭" E/"^A"A,/"^C"C/"^E♭"E/ | %22
 z"^B" B,/"^C"C/"^D" D/"^B"B,/"^C"C/"^D"D/ z"^B" B,/"^C"C/"^D" D/"^B"B,/"^C"C/"^D"D/ | %23
 z[K:bass]"^G" G,/"^B"B,/"^D" D/"^G"G,/"^B"B,/"^D"D/ z"^G" G,/"^B"B,/"^D" D/"^G"G,/"^B"B,/[K:treble]"^D"D/ | %24
 z"^G" G,/"^C"C/"^E" E/"^G"G,/"^C"C/"^E"E/ z"^G" G,/"^C"C/"^E" E/"^G"G,/"^C"C/"^E"E/ | %25
 z"^G" G,/"^C"C/"^F" F/"^G"G,/"^C"C/"^F"F/ z"^G" G,/"^C"C/"^F" F/"^G"G,/"^C"C/"^F"F/ | %26
 z"^G" G,/"^B"B,/"^F" F/"^G"G,/"^B"B,/"^F"F/ z"^G" G,/"^B"B,/"^F" F/"^G"G,/"^B"B,/"^F"F/ | %27
 z"^A" A,/"^C"C/"^F♯" ^F/"^A"A,/"^C"C/"^F♯"F/ z"^A" A,/"^C"C/"^F♯" F/"^A"A,/"^C"C/"^F♯"F/ | %28
 z"^G" G,/"^C"C/"^G" G/"^G"G,/"^C"C/"^G"G/ z"^G" G,/"^C"C/"^G" G/"^G"G,/"^C"C/"^G"G/ | %29
 z"^G" G,/"^C"C/"^F" F/"^G"G,/"^C"C/"^F"F/ z"^G" G,/"^C"C/"^F" F/"^G"G,/"^C"C/"^F"F/ | %30
 z"^G" G,/"^B"B,/"^F" F/"^G"G,/"^B"B,/"^F"F/ z"^G" G,/"^B"B,/"^F" F/"^G"G,/"^B"B,/"^F"F/ | %31
 z[K:bass]"^G" G,/"^B♭"_B,/"^E" E/"^G"G,/"^B♭"B,/"^E"E/ z"^G" G,/"^B♭"B,/"^E" E/"^G"G,/"^B♭"B,/"^E"E/ | %32
 z"^F" F,/"^A"A,/[K:treble]"^C" C/"^F"F/"^C"C/"^A"A,/"^C" C/[K:bass]"^A"A,/"^F"F,/"^A"A,/"^F" F,/"^D"D,/"^F"F,/"^D"D,/ | %33
 z[K:treble]"^G" G/"^B"B/"^D" d/"^F"f/"^D"d/"^B"B/"^D" d/"^B"B/"^G"G/"^B"B/"^D" D/"^F"F/"^E"E/"^D"D/ | %34
"^C,G,E" [EGc]8 |] %35
V:2
"_C" z/"^E" E3/2-"^E" E2"_C" z/"^E" E3/2-"^E" E2 | %1
"_C" z/"^D" D3/2-"^D" D2"_C" z/"^D" D3/2-"^D" D2 | %2
"_B" z/"^D" D3/2-"^D" D2"_B" z/"^D" D3/2-"^D" D2 | %3
"_C" z/"^E" E3/2-"^E" E2"_C" z/"^E" E3/2-"^E" E2 | %4
"_C" z/"^E" E3/2-"^E" E2"_C" z/"^E" E3/2-"^E" E2 | %5
"_C" z/"^D" D3/2-"^D" D2"_C" z/"^D" D3/2-"^D" D2 | %6
"_B" z/"^D" D3/2-"^D" D2"_B" z/"^D" D3/2-"^D" D2 | %7
"_B" z/"^C" C3/2-"^C" C2"_B" z/"^C" C3/2-"^C" C2 | %8
"_A" z/"^C" C3/2-"^C" C2"_A" z/"^C" C3/2-"^C" C2 | %9
[K:bass]"_D" z/"^A" A,3/2-"^A" A,2"_D" z/"^A" A,3/2-"^A" A,2 | %10
"_G" z/"^B" B,3/2-"^B" B,2"_G" z/"^B" B,3/2-"^B" B,2 | %11
"_G" z/"^B♭" _B,3/2-"^B♭" B,2"_G" z/"^B♭" B,3/2-"^B♭" B,2 | %12
"_F" z/"^A" A,3/2-"^A" A,2"_F" z/"^A" A,3/2-"^A" A,2 | %13
"_F" z/"^G♯" ^G,3/2-"^G♯" G,2"_F" z/"^G♯" G,3/2-"^G♯" G,2 | %14
"_E" z/"^G" G,3/2-"^G" G,2"_E" z/"^G" G,3/2-"^G" G,2 | %15
"_E" z/"^F" F,3/2-"^F" F,2"_E" z/"^F" F,3/2-"^F" F,2 | %16
"_D" z/"^F" F,3/2-"^F" F,2"_D" z/"^F" F,3/2-"^F" F,2 | %17
"_G" z/"^D" D,3/2-"^D" D,2"_G" z/"^D" D,3/2-"^D" D,2 | %18
"_C" z/"^E" E,3/2-"^E" E,2"_C" z/"^E" E,3/2-"^E" E,2 | %19
"_C" z/"^G" G,3/2-"^G" G,2"_C" z/"^G" G,3/2-"^G" G,2 | %20
"_F" z/"^F" F,3/2-"^F" F,2"_F" z/"^F" F,3/2-"^F" F,2 | %21
"_F♯" z/"^C" C,3/2-"^C" C,2"_F♯" z/"^C" C,3/2-"^C" C,2 | %22
"_G♯" z/"^F" F,3/2-"^F" F,2"_G♯" z/"^F" F,3/2-"^F" F,2 | %23
"_G" z/"^F" F,3/2-"^F" F,2"_G" z/"^F" F,3/2-"^F" F,2 | %24
"_G" z/"^E" E,3/2-"^E" E,2"_G" z/"^E" E,3/2-"^E" E,2 | %25
"_G" z/"^D" D,3/2-"^D" D,2"_G" z/"^D" D,3/2-"^D" D,2 | %26
"_G" z/"^D" D,3/2-"^D" D,2"_G" z/"^D" D,3/2-"^D" D,2 | %27
"_G" z/"^E♭" _E,3/2-"^E♭" E,2"_G" z/"^E♭" E,3/2-"^E♭" E,2 | %28
"_G" z/"^E" E,3/2-"^E" E,2"_G" z/"^E" E,3/2-"^E" E,2 | %29
"_G" z/"^D" D,3/2-"^D" D,2"_G" z/"^D" D,3/2-"^D" D,2 | %30
"_G" z/"^D" D,3/2-"^D" D,2"_G" z/"^D" D,3/2-"^D" D,2 | %31
"_C" z/"^C" C,3/2-"^C" C,2"_C" z/"^C" C,3/2-"^C" C,2 |"_C" z/"^C" C,3/2-"^C" C,6 | %33
"_C" z/"^B" B,,3/2-"^B" B,,6 |"^C,C" [C,,C,]8 |] %35
V:3
 C4 C4 | C4 C4 | B,4 B,4 | C4 C4 | C4 C4 | C4 C4 | B,4 B,4 | B,4 B,4 | A,4 A,4 |[K:bass] D,4 D,4 | %10
 G,4 G,4 | G,4 G,4 | F,4 F,4 | F,4 F,4 | E,4 E,4 | E,4 E,4 | D,4 D,4 | G,,4 G,,4 | C,4 C,4 | %19
 C,4 C,4 | F,,4 F,,4 | ^F,,4 F,,4 | ^G,,4 G,,4 | G,,4 G,,4 | G,,4 G,,4 | G,,4 G,,4 | G,,4 G,,4 | %27
 G,,4 G,,4 | G,,4 G,,4 | G,,4 G,,4 | G,,4 G,,4 | C,,4 C,,4 | C,,8 | C,,8 | x8 |] %35

